img/icon-round-email.svg

<svg width="40" height="40" viewBox="0 0 40 40" fill="none" xmlns="http://www.w3.org/2000/svg">
<circle cx="20" cy="20" r="20" fill="#F8002D"/>
<g clip-path="url(#clip0)">
<path d="M26.5712 26.2854C26.9309 26.2854 27.2425 26.1666 27.5075 25.9322L22.9744 21.3989C22.8656 21.4768 22.7602 21.5525 22.6606 21.6245C22.3214 21.8745 22.0461 22.0695 21.8347 22.2093C21.6233 22.3493 21.342 22.4921 20.9909 22.6379C20.6396 22.7838 20.3123 22.8566 20.0087 22.8566H19.9998H19.9909C19.6873 22.8566 19.36 22.7839 19.0087 22.6379C18.6574 22.4921 18.3762 22.3493 18.165 22.2093C17.9536 22.0695 17.6784 21.8745 17.339 21.6245C17.2444 21.5552 17.1395 21.4791 17.0261 21.3977L12.4922 25.9322C12.7571 26.1666 13.0689 26.2854 13.4286 26.2854H26.5712Z" fill="white"/>
<path d="M12.9019 18.5445C12.5627 18.3183 12.2619 18.0593 12 17.7676V24.6645L15.9954 20.6691C15.1961 20.1111 14.1662 19.4037 12.9019 18.5445Z" fill="white"/>
<path d="M27.1069 18.5445C25.8907 19.3676 24.8571 20.0762 24.0059 20.6707L27.9997 24.6647V17.7676C27.7436 18.0534 27.4461 18.3123 27.1069 18.5445Z" fill="white"/>
<path d="M26.5712 13.7141H13.4285C12.97 13.7141 12.6175 13.8689 12.3705 14.1783C12.1234 14.4878 12 14.8748 12 15.339C12 15.7139 12.1637 16.1202 12.491 16.5579C12.8183 16.9954 13.1666 17.339 13.5356 17.589C13.738 17.7319 14.3481 18.1561 15.3661 18.8613C15.9156 19.2421 16.3935 19.5741 16.8041 19.8605C17.1542 20.1044 17.4561 20.3156 17.7053 20.4909C17.7339 20.5109 17.7789 20.5431 17.8386 20.5858C17.903 20.6321 17.9844 20.6907 18.0849 20.7632C18.2783 20.9031 18.439 21.0162 18.567 21.1026C18.6948 21.189 18.8497 21.2856 19.0313 21.3928C19.2129 21.4998 19.3841 21.5803 19.5448 21.6338C19.7055 21.6873 19.8543 21.7142 19.9912 21.7142H20.0001H20.0089C20.1458 21.7142 20.2946 21.6873 20.4554 21.6338C20.616 21.5803 20.7871 21.5 20.9688 21.3928C21.1503 21.2856 21.3049 21.1888 21.4332 21.1026C21.5612 21.0162 21.7218 20.9032 21.9153 20.7632C22.0156 20.6907 22.097 20.632 22.1613 20.586C22.2211 20.5431 22.2661 20.5111 22.2948 20.4909C22.489 20.3558 22.7916 20.1454 23.1984 19.863C23.9386 19.3486 25.0288 18.5917 26.4734 17.589C26.9079 17.2855 27.2709 16.9193 27.5626 16.4908C27.8539 16.0624 27.9999 15.613 27.9999 15.1427C27.9999 14.7499 27.8583 14.4137 27.5758 14.1337C27.293 13.854 26.9581 13.7141 26.5712 13.7141Z" fill="white"/>
</g>
<defs>
<clipPath id="clip0">
<rect width="16" height="16" fill="white" transform="translate(12 12)"/>
</clipPath>
</defs>
</svg>

<svg width="40" height="40" fill="none" xmlns="http://www.w3.org/2000/svg"><circle cx="20" cy="20" r="20" fill="#F8002D"/><g clip-path="url(#clip0)" fill="#fff"><path d="M26.571 26.285c.36 0 .671-.118.936-.353L22.974 21.4c-.108.078-.214.153-.313.226-.34.25-.615.445-.826.584-.212.14-.493.283-.844.429a2.572 2.572 0 0 1-.982.219H19.99a2.57 2.57 0 0 1-.982-.22 5.08 5.08 0 0 1-.844-.428 21.04 21.04 0 0 1-.826-.584l-.313-.227-4.534 4.534c.265.235.577.353.937.353H26.57zM12.902 18.544a4.738 4.738 0 0 1-.902-.776v6.896l3.995-3.995c-.799-.558-1.829-1.265-3.093-2.125zM27.107 18.544a261.82 261.82 0 0 0-3.101 2.127L28 24.665v-6.897a4.932 4.932 0 0 1-.893.776z"/><path d="M26.571 13.714H13.428c-.458 0-.81.155-1.058.464-.247.31-.37.697-.37 1.161 0 .375.164.781.491 1.219.327.437.676.781 1.045 1.031.202.143.812.567 1.83 1.272a585.36 585.36 0 0 1 2.34 1.63l.133.095.246.177c.193.14.354.253.482.34.128.086.283.183.464.29.182.107.353.187.514.24.16.054.31.081.446.081H20.01c.137 0 .286-.027.446-.08.161-.054.332-.134.514-.241.181-.107.336-.204.464-.29.128-.087.289-.2.482-.34a65.632 65.632 0 0 1 .38-.272l.903-.628 3.275-2.274c.435-.303.798-.67 1.09-1.098.29-.429.437-.878.437-1.348a1.37 1.37 0 0 0-.424-1.01 1.38 1.38 0 0 0-1.005-.419z"/></g><defs><clipPath id="clip0"><path fill="#fff" transform="translate(12 12)" d="M0 0h16v16H0z"/></clipPath></defs></svg>
